flaticon/household/valve-1.svg

<svg xmlns="http://www.w3.org/2000/svg" width="32" height="32" viewBox="0 0 24 24">
    <path d="M 24 14.179688 L 22.800781 14.179688 L 22.800781 13.378906 C 22.800781 13.160156 22.621094 12.980469 22.398438 12.980469 L 20 12.980469 C 19.777344 12.980469 19.601562 13.160156 19.601562 13.378906 L 19.601562 14.179688 L 14.539062 14.179688 L 16.800781 11.917969 C 17.050781 12.101562 17.339844 12.195312 17.636719 12.195312 C 17.996094 12.195312 18.359375 12.058594 18.632812 11.785156 L 19.097656 11.320312 C 19.292969 11.125 19.578125 11.050781 19.855469 11.117188 C 20.460938 11.269531 20.90625 11.207031 21.179688 10.9375 L 22.292969 9.820312 C 22.84375 9.269531 22.84375 8.375 22.292969 7.824219 L 17.503906 3.03125 C 16.953125 2.480469 16.058594 2.480469 15.507812 3.03125 L 14.390625 4.148438 C 14.121094 4.417969 14.058594 4.863281 14.207031 5.46875 C 14.277344 5.75 14.203125 6.035156 14.003906 6.230469 L 13.542969 6.691406 C 13.046875 7.191406 13 7.964844 13.402344 8.515625 L 7.441406 14.179688 L 4.398438 14.179688 L 4.398438 13.378906 C 4.398438 13.160156 4.222656 12.980469 4 12.980469 L 1.601562 12.980469 C 1.378906 12.980469 1.199219 13.160156 1.199219 13.378906 L 1.199219 14.179688 L 0 14.179688 L 0 20.179688 L 1.199219 20.179688 L 1.199219 20.980469 C 1.199219 21.203125 1.378906 21.378906 1.601562 21.378906 L 4 21.378906 C 4.222656 21.378906 4.398438 21.203125 4.398438 20.980469 L 4.398438 20.179688 L 19.601562 20.179688 L 19.601562 20.980469 C 19.601562 21.203125 19.777344 21.378906 20 21.378906 L 22.398438 21.378906 C 22.621094 21.378906 22.800781 21.203125 22.800781 20.980469 L 22.800781 20.179688 L 24 20.179688 Z M 14.109375 7.257812 L 14.570312 6.796875 C 14.96875 6.398438 15.121094 5.832031 14.984375 5.277344 C 14.875 4.835938 14.957031 4.714844 14.957031 4.710938 L 16.070312 3.597656 C 16.191406 3.476562 16.347656 3.417969 16.503906 3.417969 C 16.660156 3.417969 16.816406 3.476562 16.9375 3.597656 L 21.726562 8.390625 C 21.96875 8.628906 21.96875 9.015625 21.726562 9.253906 L 20.613281 10.371094 C 20.589844 10.386719 20.433594 10.4375 20.046875 10.34375 C 19.492188 10.203125 18.925781 10.359375 18.53125 10.753906 L 18.066406 11.21875 C 17.828125 11.457031 17.441406 11.457031 17.203125 11.21875 L 14.242188 8.257812 L 14.109375 8.121094 C 13.871094 7.882812 13.871094 7.496094 14.109375 7.257812 Z M 0.800781 19.378906 L 0.800781 14.980469 L 1.199219 14.980469 L 1.199219 19.378906 Z M 3.601562 20.582031 L 2 20.582031 L 2 13.78125 L 3.601562 13.78125 Z M 4.398438 19.378906 L 4.398438 14.980469 L 6.632812 14.980469 L 6.117188 15.496094 C 5.960938 15.65625 5.960938 15.90625 6.117188 16.0625 C 6.195312 16.140625 6.296875 16.179688 6.398438 16.179688 C 6.503906 16.179688 6.605469 16.140625 6.683594 16.0625 L 7.882812 14.863281 L 13.953125 9.097656 L 16.222656 11.367188 L 13.292969 14.296875 C 13.261719 14.328125 13.238281 14.359375 13.21875 14.394531 L 12.117188 15.496094 C 11.960938 15.65625 11.960938 15.90625 12.117188 16.0625 C 12.195312 16.140625 12.296875 16.179688 12.402344 16.179688 C 12.503906 16.179688 12.605469 16.140625 12.683594 16.0625 L 13.765625 14.980469 L 19.601562 14.980469 L 19.601562 19.378906 Z M 22 20.582031 L 20.398438 20.582031 L 20.398438 13.78125 L 22 13.78125 Z M 23.199219 19.378906 L 22.800781 19.378906 L 22.800781 14.980469 L 23.199219 14.980469 Z M 23.199219 19.378906"/>
</svg>

<svg xmlns="http://www.w3.org/2000/svg" width="32" height="32" viewBox="0 0 24 24">
    <path d="M24 14.18h-1.2v-.801a.401.401 0 0 0-.402-.399H20a.398.398 0 0 0-.398.399v.8h-5.063l2.262-2.261a1.403 1.403 0 0 0 1.832-.133l.465-.465a.8.8 0 0 1 .757-.203c.606.153 1.051.09 1.325-.18l1.113-1.117c.55-.55.55-1.445 0-1.996l-4.79-4.793a1.412 1.412 0 0 0-1.995 0L14.39 4.148c-.27.27-.332.715-.184 1.32a.786.786 0 0 1-.203.762l-.461.461a1.409 1.409 0 0 0-.14 1.825L7.44 14.18H4.398v-.801A.398.398 0 0 0 4 12.98H1.602a.401.401 0 0 0-.403.399v.8H0v6h1.2v.801c0 .223.179.399.402.399H4a.395.395 0 0 0 .398-.399v-.8h15.204v.8c0 .223.175.399.398.399h2.398a.398.398 0 0 0 .403-.399v-.8H24zm-9.89-6.922l.46-.461c.399-.399.551-.965.414-1.52-.109-.441-.027-.562-.027-.566l1.113-1.113a.61.61 0 0 1 .867 0l4.79 4.793a.604.604 0 0 1 0 .863l-1.114 1.117c-.023.016-.18.066-.566-.027a1.576 1.576 0 0 0-1.516.41l-.465.465a.61.61 0 0 1-.863 0l-2.96-2.961-.134-.137a.61.61 0 0 1 0-.863zM.8 19.378V14.98h.4v4.399zm2.802 1.204H2v-6.8h1.602zm.796-1.203V14.98h2.235l-.516.516a.4.4 0 0 0 .567.566l1.199-1.199 6.07-5.765 2.27 2.27-2.93 2.929a.43.43 0 0 0-.074.098l-1.102 1.101a.4.4 0 0 0 .567.566l1.082-1.082h5.836v4.399zM22 20.582h-1.602v-6.8H22zm1.2-1.203h-.4V14.98h.4zm0 0"/>
</svg>
